svgs/duotone/money-bill-1.svg

<svg xmlns="http://www.w3.org/2000/svg" viewBox="0 0 576 512"><!--! Font Awesome Pro 6.5.1 by @fontawesome - https://fontawesome.com License - https://fontawesome.com/license (Commercial License) Copyright 2023 Fonticons, Inc. --><defs><style>.fa-secondary{opacity:.4}</style></defs><path class="fa-secondary" d="M448 128H128c0 35.3-28.7 64-64 64V320c35.3 0 64 28.7 64 64H448c0-35.3 28.7-64 64-64V192c-35.3 0-64-28.7-64-64zM288 160a96 96 0 1 1 0 192 96 96 0 1 1 0-192z"/><path class="fa-primary" d="M0 128C0 92.7 28.7 64 64 64H512c35.3 0 64 28.7 64 64V384c0 35.3-28.7 64-64 64H64c-35.3 0-64-28.7-64-64V128zm128 0c0 35.3-28.7 64-64 64V320c35.3 0 64 28.7 64 64H448c0-35.3 28.7-64 64-64V192c-35.3 0-64-28.7-64-64H128zm144 60h16c11 0 20 9 20 20v68h4c11 0 20 9 20 20s-9 20-20 20H288 264c-11 0-20-9-20-20s9-20 20-20h4V227.6c-9.1-1.9-16-9.9-16-19.6c0-11 9-20 20-20z"/></svg>

<svg xmlns="http://www.w3.org/2000/svg" viewBox="0 0 576 512"><!--! Font Awesome Pro 6.1.1 by @fontawesome - https://fontawesome.com License - https://fontawesome.com/license (Commercial License) Copyright 2022 Fonticons, Inc. --><defs><style>.fa-secondary{opacity:.4}</style></defs><path class="fa-primary" d="M288 188C299 188 308 196.1 308 208V276H312C323 276 332 284.1 332 296C332 307 323 316 312 316H264C252.1 316 244 307 244 296C244 284.1 252.1 276 264 276H268V227.6C258.9 225.7 252 217.7 252 208C252 196.1 260.1 188 272 188H288zM0 128C0 92.65 28.65 64 64 64H512C547.3 64 576 92.65 576 128V384C576 419.3 547.3 448 512 448H64C28.65 448 0 419.3 0 384V128zM64 192V320C99.35 320 128 348.7 128 384H448C448 348.7 476.7 320 512 320V192C476.7 192 448 163.3 448 128H128C128 163.3 99.35 192 64 192z"/><path class="fa-secondary" d="M512 192V320C476.7 320 448 348.7 448 384H128C128 348.7 99.35 320 64 320V192C99.35 192 128 163.3 128 128H448C448 163.3 476.7 192 512 192zM288 352C341 352 384 309 384 256C384 202.1 341 160 288 160C234.1 160 192 202.1 192 256C192 309 234.1 352 288 352z"/></svg>
